manual-assets/professional/deepin-movie/en_US/icon/R.svg

<?xml version="1.0" encoding="iso-8859-1"?>
<!-- Generator: Adobe Illustrator 18.0.0, SVG Export Plug-In . SVG Version: 6.00 Build 0)  -->
<!DOCTYPE svg PUBLIC "-//W3C//DTD SVG 1.1//EN" "http://www.w3.org/Graphics/SVG/1.1/DTD/svg11.dtd">
<svg version="1.1" id="&#x56FE;&#x5C42;_1" xmlns="http://www.w3.org/2000/svg" xmlns:xlink="http://www.w3.org/1999/xlink" x="0px"
	 y="0px" viewBox="0 0 20 20" enable-background="new 0 0 20 20" xml:space="preserve">
<g>
	<path opacity="0.1" fill="#FFFFFF" d="M15.7,19.5H4.3c-2.09,0-3.8-1.71-3.8-3.8V4.3c0-2.09,1.71-3.8,3.8-3.8h11.4
		c2.09,0,3.8,1.71,3.8,3.8v11.4C19.5,17.79,17.79,19.5,15.7,19.5z"/>
	<path fill="none" stroke="#CBCBCB" stroke-miterlimit="10" d="M15.5,19.5h-11c-2.209,0-4-1.791-4-4v-11c0-2.209,1.791-4,4-4h11
		c2.209,0,4,1.791,4,4v11C19.5,17.709,17.709,19.5,15.5,19.5z"/>
	<path d="M13,8c0-1.657-1.343-3-3-3H8H7v9h1v-3h1.178l3.179,2.99L13,13.274l-2.475-2.327C11.931,10.698,13,9.477,13,8z M8,10V6h2
		c1.103,0,2,0.897,2,2s-0.897,2-2,2H8z"/>
</g>
</svg>

<?xml version="1.0" encoding="UTF-8"?>
<svg width="20px" height="20px" viewBox="0 0 20 20" version="1.1" xmlns="http://www.w3.org/2000/svg" xmlns:xlink="http://www.w3.org/1999/xlink">
    <!-- Generator: Sketch 64 (93537) - https://sketch.com -->
    <title>R</title>
    <desc>Created with Sketch.</desc>
    <g id="页面-1" stroke="none" stroke-width="1" fill="none" fill-rule="evenodd">
        <g id="R">
            <path d="M15.7,19.5 L4.3,19.5 C2.21,19.5 0.5,17.79 0.5,15.7 L0.5,4.3 C0.5,2.21 2.21,0.5 4.3,0.5 L15.7,0.5 C17.79,0.5 19.5,2.21 19.5,4.3 L19.5,15.7 C19.5,17.79 17.79,19.5 15.7,19.5 Z" id="路径" fill="#FFFFFF" fill-rule="nonzero"></path>
            <path d="M15.5,19.5 L4.5,19.5 C2.291,19.5 0.5,17.709 0.5,15.5 L0.5,4.5 C0.5,2.291 2.291,0.5 4.5,0.5 L15.5,0.5 C17.709,0.5 19.5,2.291 19.5,4.5 L19.5,15.5 C19.5,17.709 17.709,19.5 15.5,19.5 Z" id="路径" stroke="#CBCBCB"></path>
            <path d="M13,8 C13,6.343 11.657,5 10,5 L8,5 L7,5 L7,14 L8,14 L8,11 L9.178,11 L12.357,13.99 L13,13.274 L10.525,10.947 C11.931,10.698 13,9.477 13,8 Z M8,10 L8,6 L10,6 C11.103,6 12,6.897 12,8 C12,9.103 11.103,10 10,10 L8,10 Z" id="形状" fill="#000000" fill-rule="nonzero"></path>
        </g>
    </g>
</svg>
